src/svg/sound.svg

<svg xmlns="http://www.w3.org/2000/svg" width="1000" height="1000" viewBox="0 0 1000 1000"><path fill-rule="evenodd" clip-rule="evenodd" fill="#020202" d="M852.452 306.838l-71.556 41.262c-26.37 15.254-59.997 6.169-75.211-20.134-15.188-26.303-6.183-59.983 20.106-75.211l71.556-41.275c26.289-15.174 59.997-6.169 75.211 20.134 15.188 26.382 6.183 59.983-20.106 75.224zm-104.592 138.111h82.522c30.402 0 55.078 24.677 55.078 55.024 0 30.401-24.676 55.078-55.078 55.078h-82.522c-30.401 0-55.078-24.677-55.078-55.078 0-30.347 24.677-55.024 55.078-55.024zm-109.753 346.139c1.075 26.935-7.016 82.818-64.028 93.141-3.898.726-7.85 1.129-11.828 1.129-37.363 0-73.947-30.187-80.332-36.288l-2.338-2.474-199.802-178.808h-109.605c-30.63 0-55.655-21.074-55.655-51.825v-197.531c0-30.845 25.025-54.514 55.655-54.514h107.979l194.479-203.914c4.96-5.807 43.748-45.374 91.878-45.374 29.299 0 45.454 12.62 55.239 23.265 23.815 25.806 18.574 62.309 18.305 66.354l.053 586.839zm-81.743-539.624c.296-6.303-4.059-17.512-8.735-22.337-.753-.847 0-3.535-8.656-3.535-17.996 0-40.75 18.145-45.011 23.037l-185.959 196.038h-109.968v138.26h110.25l191.079 175.689c8.857 8.011 28.266 18.359 37.351 18.359l.914-.08c19.569-3.521 18.735-31.182 18.735-31.478v-493.953zm224.532 400.437l71.556 41.262c26.289 15.268 35.294 48.868 20.106 75.238-15.214 26.315-48.922 35.294-75.211 20.133l-71.556-41.261c-26.289-15.241-35.294-48.923-20.106-75.238 15.214-26.289 48.841-35.375 75.211-20.134z"/></svg>

<?xml version="1.0" encoding="utf-8"?>
<!-- Generator: Adobe Illustrator 16.0.0, SVG Export Plug-In . SVG Version: 6.00 Build 0)  -->
<!DOCTYPE svg PUBLIC "-//W3C//DTD SVG 1.1//EN" "http://www.w3.org/Graphics/SVG/1.1/DTD/svg11.dtd">
<svg version="1.1" id="Layer_1" xmlns="http://www.w3.org/2000/svg" xmlns:xlink="http://www.w3.org/1999/xlink" x="0px" y="0px"
	 width="1000px" height="1000px" viewBox="0 0 1000 1000" enable-background="new 0 0 1000 1000" xml:space="preserve">
<path fill-rule="evenodd" clip-rule="evenodd" fill="#020202" d="M852.452,306.838L780.896,348.1
	c-26.37,15.254-59.997,6.169-75.211-20.134c-15.188-26.303-6.183-59.983,20.106-75.211l71.556-41.275
	c26.289-15.174,59.997-6.169,75.211,20.134C887.746,257.996,878.741,291.597,852.452,306.838L852.452,306.838z M747.86,444.949
	h82.522c30.402,0,55.078,24.677,55.078,55.024c0,30.401-24.676,55.078-55.078,55.078H747.86c-30.401,0-55.078-24.677-55.078-55.078
	C692.782,469.626,717.459,444.949,747.86,444.949L747.86,444.949z M638.107,791.088c1.075,26.935-7.016,82.818-64.028,93.141
	c-3.898,0.726-7.85,1.129-11.828,1.129l0,0c-37.363,0-73.947-30.187-80.332-36.288l-2.338-2.474L279.779,667.788H170.174
	c-30.63,0-55.655-21.074-55.655-51.825V418.432c0-30.845,25.025-54.514,55.655-54.514h107.979l194.479-203.914
	c4.96-5.807,43.748-45.374,91.878-45.374c29.299,0,45.454,12.62,55.239,23.265c23.815,25.806,18.574,62.309,18.305,66.354
	L638.107,791.088L638.107,791.088z M556.364,251.464c0.296-6.303-4.059-17.512-8.735-22.337c-0.753-0.847,0-3.535-8.656-3.535
	c-17.996,0-40.75,18.145-45.011,23.037L308.003,444.667H198.035v138.26h110.25l191.079,175.689
	c8.857,8.011,28.266,18.359,37.351,18.359l0.914-0.08c19.569-3.521,18.735-31.182,18.735-31.478V251.464L556.364,251.464z
	 M780.896,651.901l71.556,41.262c26.289,15.268,35.294,48.868,20.106,75.238c-15.214,26.315-48.922,35.294-75.211,20.133
	l-71.556-41.261c-26.289-15.241-35.294-48.923-20.106-75.238C720.899,645.746,754.526,636.66,780.896,651.901L780.896,651.901z"/>
</svg>
